X: 462
T: The Happy Mistake
C: Trad arr. Bert Murray
R: jig
B: Bert Murray's "Bon Accord Collection" 1999 p.46
%
Z: 2011 John Chambers <jc:trillian.mit.edu>
M: 6/8
L: 1/8
K: A
|: ue |\
AEA BAB | (c<a)f ecB | AEA BAB cAF | F2E |\
AEA BAB | (c<a)f ecA | dcB cAF | ABA A2 :|
|: ue |\
ada fga | fba gfe | aea fga | bge efg |\
a3 (b2g) | agf ecA | dcB cAF | ABA A2 :|
